X:213
T:The new copperplate
R:Reel
D:Tommy Keane & Jacqueline McCarthy: The Wind among the Reeds (?)
D:Shaskeen: Music for Set Dances
S:hnreel~1.abc
S:"Cooking With Turf" xerox
S:My arrangement from various sources
Z:Transcription, arrangement, chords:Mike Long
M:C|
L:1/8
K:G
"G"G2dG BGdG|~G2dc BGFG|"Am"A2eA cAeA|"Am"~A2ed "D"cAFA|\
"G"G2dG BGdG|~G2dc BGFG|
"Am"ABcd "C"efge|"Am"afdB "D"cAFA:|\
|:"G"~g3a g2ef|gedc BGG2|"Am"eaag ageg|
"C"aged "D"^cdef|\
"G"~g3a g2ef|gedc BGGB|"Am"ABcd "C"efge|[1 "C"aged "D"^cdef:|[2 "Am"afdB "D"cAFA|]
